X:5678
T:Gan Ainm
R:reel
S:Francis Lynne(?)
H:
N: 
D:Milltown Session 
Z:Adrian Scahill
M:4/4
L:1/8
K:A
Acc2 efec|BAGB AFEF|Acc2 efec|afec B2B2|\
Acce eafa|eafa ecBc|Acc2 afec|BABc A2A2:||\
afec e2eg|afec B2Bg|afec e2ef|ecBc A2Ag|\
afec e2ef|aee2 bee2|gaaf ceef|edcB A2A2:||


